resources/svg/slug.svg

<svg xmlns="http://www.w3.org/2000/svg" viewBox="0 0 16 16"><path fill="none" stroke="currentColor" stroke-linecap="round" stroke-linejoin="round" stroke-width=".667" d="M14.333 15.667H15a.667.667 0 0 0 .667-.667v-.667m-12 1.334H3A.667.667 0 0 1 2.333 15v-.667m10 1.332H10m-2 0H5.667m8.666-13.332H15a.667.667 0 0 1 .667.667v.667m-3.334-1.335H10m5.667 10V9.999m0-2V5.665M2.333 12.332V9.999M11 6.385v6.227M9 5.719a1.95 1.95 0 0 1 2 .666m2-.666a1.95 1.95 0 0 0-2 .666m-2 6.894a1.95 1.95 0 0 0 2-.667m2 .667a1.95 1.95 0 0 1-2-.667m-1.333-1.947h2.666m-8.25-6.583 2.762-.69a.333.333 0 0 0 .042-.635L.789.355a.333.333 0 0 0-.432.433l2.4 6.097a.333.333 0 0 0 .634-.042z"/></svg>

<svg viewBox="0 0 16 16" xmlns="http://www.w3.org/2000/svg"><g fill="none" stroke="currentColor" stroke-linecap="round" stroke-linejoin="round"><path d="M14.333 15.667H15a.667.667 0 00.667-.667v-.667M3.667 15.667H3A.667.667 0 012.333 15v-.667M12.333 15.665H10M8 15.665H5.667M14.333 2.333H15a.667.667 0 01.667.667v.667M12.333 2.332H10M15.667 12.332V9.999M15.667 7.999V5.665M2.333 12.332V9.999M11 6.385v6.227M9 5.719a1.95 1.95 0 012 .666M13 5.719a1.95 1.95 0 00-2 .666M9 13.279a1.95 1.95 0 002-.667M13 13.279a1.95 1.95 0 01-2-.667M9.667 10.665h2.666M4.083 4.082l2.762-.69a.333.333 0 00.042-.635L.789.355a.333.333 0 00-.432.433l2.4 6.097a.333.333 0 00.634-.042z" stroke-width=".66667"/></g></svg>
